src/epub/images/titlepage.svg

<?xml version="1.0" encoding="utf-8"?>
<svg xmlns="http://www.w3.org/2000/svg" xmlns:svg="http://www.w3.org/2000/svg" version="1.1" viewBox="0 0 1400 440">
	<title>The titlepage for the Standard Ebooks edition of The Riddle of the Sands, by Erskine Childers</title>
	<g aria-label="THE RIDDLE">
		<path d="m 404.2171,68.245613 h 18.33918 V 130 h 17.59065 V 68.245613 h 18.33918 V 52.807016 H 404.2171 Z"/>
		<path d="m 487.41155,99.029239 h 24.88888 V 130 h 17.59065 V 52.807016 H 512.30043 V 83.590642 H 487.41155 V 52.807016 H 469.8209 V 130 h 17.59065 z"/>
		<path d="M 590.25658,52.807016 H 546.09284 V 130 h 44.16374 v -15.4386 h -26.5731 V 99.029239 h 25.45029 V 83.590642 H 563.68348 V 68.245613 h 26.5731 z"/>
		<path d="M 635.95395,52.807016 V 130 h 17.59064 V 99.497075 L 677.12354,130 h 22.36258 l -26.5731,-31.906433 c 9.45029,-2.994152 15.81286,-10.760234 15.81286,-22.362574 0,-15.157895 -10.8538,-22.923977 -25.16959,-22.923977 z m 17.59064,34.245615 V 66.842104 h 2.05848 c 6.64328,0 14.5965,0.467836 14.5965,10.105263 0,9.637428 -7.95322,10.105264 -14.5965,10.105264 z"/>
		<path d="M 725.6133,52.807016 H 708.02266 V 130 h 17.59064 z"/>
		<path d="M 741.89693,52.807016 V 130 h 22.36257 c 21.23977,0 38.92398,-16.09357 38.92398,-38.643276 0,-22.45614 -17.77778,-38.549708 -38.92398,-38.549708 z M 759.48757,114.2807 V 68.526315 h 2.71345 c 13.09942,0 21.98831,10.011696 21.98831,22.923977 -0.0936,12.912278 -8.98246,22.830408 -21.98831,22.830408 z"/>
		<path d="M 815.97588,52.807016 V 130 h 22.36257 c 21.23977,0 38.92398,-16.09357 38.92398,-38.643276 0,-22.45614 -17.77778,-38.549708 -38.92398,-38.549708 z M 833.56652,114.2807 V 68.526315 h 2.71345 c 13.09942,0 21.98831,10.011696 21.98831,22.923977 -0.0936,12.912278 -8.98246,22.830408 -21.98831,22.830408 z"/>
		<path d="M 907.64547,52.807016 H 890.05483 V 130 h 44.16374 v -15.4386 h -26.5731 z"/>
		<path d="M 992.0329,52.807016 H 947.86916 V 130 H 992.0329 V 114.5614 H 965.4598 V 99.029239 h 25.45029 V 83.590642 H 965.4598 V 68.245613 h 26.5731 z"/>
	</g>
	<g aria-label="OF THE SANDS">
		<path d="m 322.31286,191.35672 c 0,22.54971 16.09357,40.04679 38.92398,40.04679 22.17544,0 38.83041,-17.49708 38.83041,-40.04679 0,-22.5497 -17.40351,-39.95321 -38.83041,-39.95321 -21.23977,0 -38.92398,17.40351 -38.92398,39.95321 z m 18.99415,0 c 0,-11.50877 6.36257,-23.01754 19.92983,-23.01754 13.66082,0 19.83625,11.50877 19.83625,23.01754 0,11.50878 -5.80117,23.01755 -19.83625,23.01755 -14.40936,0 -19.92983,-11.50877 -19.92983,-23.01755 z"/>
		<path d="M 457.46052,152.80702 H 412.82894 V 230 h 17.59064 v -30.97076 h 24.98246 v -15.4386 h -24.98246 v -15.34503 h 27.04094 z"/>
		<path d="m 491.97661,168.24561 h 18.33918 V 230 h 17.59065 v -61.75439 h 18.33918 v -15.43859 h -54.26901 z"/>
		<path d="m 575.17105,199.02924 h 24.88889 V 230 h 17.59064 v -77.19298 h -17.59064 v 30.78362 H 575.17105 V 152.80702 H 557.5804 V 230 h 17.59065 z"/>
		<path d="M 678.01608,152.80702 H 633.85233 V 230 h 44.16375 v -15.4386 h -26.5731 v -15.53216 h 25.45029 v -15.4386 h -25.45029 v -15.34503 h 26.5731 z"/>
		<path d="m 750.33041,151.40351 c -12.44445,0 -25.16959,9.16959 -25.16959,23.57895 0,8.04678 5.4269,15.25146 14.69005,19.83625 9.1696,4.5848 17.40351,7.11111 17.40351,12.72515 0,7.20468 -7.29824,7.57895 -11.1345,7.57895 -8.60819,0 -18.90058,-8.70176 -18.90058,-8.70176 l -8.79533,14.78363 c 0,0 10.94737,10.19883 29.00585,10.19883 15.06433,0 29.09942,-6.45614 29.09942,-24.88889 0,-10.10526 -9.45029,-17.40351 -18.05848,-21.05263 -8.79532,-3.74269 -16.09357,-6.83041 -16.09357,-11.13451 0,-4.21052 3.18129,-6.92397 9.16959,-6.92397 7.95322,0 15.62573,5.33333 15.62573,5.33333 l 7.11111,-14.03509 c 0,0 -9.91812,-7.29824 -23.95321,-7.29824 z"/>
		<path d="m 828.95615,152.80702 h -16.2807 L 781.51755,230 h 18.90059 l 5.7076,-15.4386 h 29.38012 L 841.21346,230 h 18.90059 z m 0.5614,46.31579 h -17.40351 l 8.60819,-22.45614 h 0.18714 z"/>
		<path d="m 885.62428,182.09357 h 0.18713 L 916.50147,230 h 17.59065 v -77.19298 h -17.59065 v 47.90643 h -0.18713 L 885.62428,152.80702 H 868.03364 V 230 h 17.59064 z"/>
		<path d="M 950.33625,152.80702 V 230 h 22.36257 c 21.23977,0 38.92398,-16.09357 38.92398,-38.64328 0,-22.45614 -17.77778,-38.5497 -38.92398,-38.5497 z m 17.59064,61.47368 v -45.75439 h 2.71345 c 13.09942,0 21.98831,10.0117 21.98831,22.92398 -0.0936,12.91228 -8.98246,22.83041 -21.98831,22.83041 z"/>
		<path d="m 1051.0322,151.40351 c -12.4445,0 -25.1696,9.16959 -25.1696,23.57895 0,8.04678 5.4269,15.25146 14.69,19.83625 9.1696,4.5848 17.4035,7.11111 17.4035,12.72515 0,7.20468 -7.2982,7.57895 -11.1345,7.57895 -8.6082,0 -18.9006,-8.70176 -18.9006,-8.70176 l -8.7953,14.78363 c 0,0 10.9474,10.19883 29.0059,10.19883 15.0643,0 29.0994,-6.45614 29.0994,-24.88889 0,-10.10526 -9.4503,-17.40351 -18.0585,-21.05263 -8.7953,-3.74269 -16.0936,-6.83041 -16.0936,-11.13451 0,-4.21052 3.1813,-6.92397 9.1696,-6.92397 7.9532,0 15.6258,5.33333 15.6258,5.33333 l 7.1111,-14.03509 c 0,0 -9.9182,-7.29824 -23.9532,-7.29824 z"/>
	</g>
	<g aria-label="ERSKINE CHILDERS">
		<path d="m 355.67215,332.10526 h -33.1228 V 390 h 33.1228 v -11.57895 h -19.92982 v -11.64912 h 19.08772 v -11.57895 h -19.08772 v -11.50877 h 19.92982 z"/>
		<path d="M 368.25658,332.10526 V 390 h 13.19298 V 367.12281 L 399.13378,390 h 16.77192 l -19.92982,-23.92982 c 7.08772,-2.24562 11.85965,-8.07018 11.85965,-16.77193 0,-11.36842 -8.14035,-17.19299 -18.87719,-17.19299 z m 13.19298,25.68421 v -15.15789 h 1.54386 c 4.98246,0 10.94737,0.35088 10.94737,7.57895 0,7.22807 -5.96491,7.57894 -10.94737,7.57894 z"/>
		<path d="m 444.89145,331.05263 c -9.33333,0 -18.87719,6.8772 -18.87719,17.68421 0,6.03509 4.07017,11.4386 11.01754,14.8772 6.8772,3.43859 13.05263,5.33333 13.05263,9.54385 0,5.40351 -5.47368,5.68422 -8.35087,5.68422 -6.45614,0 -14.17544,-6.52632 -14.17544,-6.52632 l -6.59649,11.08772 c 0,0 8.21052,7.64912 21.75438,7.64912 11.29825,0 21.82456,-4.8421 21.82456,-18.66666 0,-7.57895 -7.08771,-13.05264 -13.54385,-15.78948 -6.5965,-2.80702 -12.07018,-5.12281 -12.07018,-8.35088 0,-3.15789 2.38596,-5.19298 6.87719,-5.19298 5.96492,0 11.7193,4 11.7193,4 l 5.33333,-10.52631 c 0,0 -7.43859,-5.47369 -17.96491,-5.47369 z"/>
		<path d="m 528.409,390 -26.94737,-30.45614 23.29824,-27.4386 h -16 l -19.85964,23.64913 V 332.10526 H 475.70724 V 390 h 13.19299 V 365.4386 L 510.23356,390 Z"/>
		<path d="M 549.13597,332.10526 H 535.94299 V 390 h 13.19298 z"/>
		<path d="m 575.79167,354.07018 h 0.14036 L 598.94957,390 h 13.19298 v -57.89474 h -13.19298 v 35.92983 h -0.14035 L 575.79167,332.10526 H 562.59869 V 390 h 13.19298 z"/>
		<path d="M 658.69846,332.10526 H 625.57565 V 390 h 33.12281 v -11.57895 h -19.92983 v -11.64912 h 19.08772 v -11.57895 h -19.08772 v -11.50877 h 19.92983 z"/>
		<path d="m 724.08552,378.07018 c -13.26316,0 -19.08772,-9.26316 -19.08772,-17.05264 0,-7.71929 5.82456,-16.98245 19.08772,-16.98245 6.73684,0 11.36842,3.57895 11.36842,3.57895 l 5.61404,-11.22807 c 0,0 -6.45615,-5.33334 -19.01755,-5.33334 -16.42105,0 -31.36842,13.47369 -31.36842,30.10527 0,16.5614 15.01754,29.89473 31.36842,29.89473 12.5614,0 19.01755,-5.33333 19.01755,-5.33333 l -5.61404,-11.22807 c 0,0 -4.63158,3.57895 -11.36842,3.57895 z"/>
		<path d="m 764.37718,366.77193 h 18.66667 V 390 h 13.19298 v -57.89474 h -13.19298 v 23.08772 H 764.37718 V 332.10526 H 751.1842 V 390 h 13.19298 z"/>
		<path d="M 822.83113,332.10526 H 809.63815 V 390 h 13.19298 z"/>
		<path d="M 849.48683,332.10526 H 836.29385 V 390 h 33.12281 v -11.57895 h -19.92983 z"/>
		<path d="M 880.90457,332.10526 V 390 h 16.77193 c 15.92982,0 29.19298,-12.07018 29.19298,-28.98246 0,-16.8421 -13.33333,-28.91228 -29.19298,-28.91228 z m 13.19298,46.10527 v -34.31579 h 2.03509 c 9.82456,0 16.49123,7.50877 16.49123,17.19298 -0.0702,9.68421 -6.73684,17.12281 -16.49123,17.12281 z"/>
		<path d="m 970.83664,332.10526 h -33.1228 V 390 h 33.1228 v -11.57895 h -19.92982 v -11.64912 h 19.08772 v -11.57895 h -19.08772 v -11.50877 h 19.92982 z"/>
		<path d="M 983.42105,332.10526 V 390 h 13.19298 V 367.12281 L 1014.2982,390 h 16.772 l -19.9299,-23.92982 C 1018.2281,363.82456 1023,358 1023,349.29825 c 0,-11.36842 -8.1404,-17.19299 -18.8772,-17.19299 z m 13.19298,25.68421 v -15.15789 h 1.54386 c 4.98241,0 10.94741,0.35088 10.94741,7.57895 0,7.22807 -5.965,7.57894 -10.94741,7.57894 z"/>
		<path d="m 1060.0559,331.05263 c -9.3333,0 -18.8772,6.8772 -18.8772,17.68421 0,6.03509 4.0702,11.4386 11.0175,14.8772 6.8772,3.43859 13.0527,5.33333 13.0527,9.54385 0,5.40351 -5.4737,5.68422 -8.3509,5.68422 -6.4561,0 -14.1754,-6.52632 -14.1754,-6.52632 l -6.5965,11.08772 c 0,0 8.2105,7.64912 21.7544,7.64912 11.2982,0 21.8245,-4.8421 21.8245,-18.66666 0,-7.57895 -7.0877,-13.05264 -13.5438,-15.78948 -6.5965,-2.80702 -12.0702,-5.12281 -12.0702,-8.35088 0,-3.15789 2.3859,-5.19298 6.8772,-5.19298 5.9649,0 11.7193,4 11.7193,4 l 5.3333,-10.52631 c 0,0 -7.4386,-5.47369 -17.9649,-5.47369 z"/>
	</g>
</svg>

<?xml version="1.0" encoding="utf-8"?>
<svg xmlns="http://www.w3.org/2000/svg" xmlns:svg="http://www.w3.org/2000/svg" version="1.1" viewBox="0 0 1400 440">
	<title>The titlepage for the Standard Ebooks edition of The Riddle of the Sands, by Erskine Childers</title>
	<g>
		<path d="m 404.2171,68.245613 18.33918,0 0,61.754387 17.59065,0 0,-61.754387 18.33918,0 0,-15.438597 -54.26901,0 0,15.438597 z"/>
		<path d="m 487.41155,99.029239 24.88888,0 0,30.970761 17.59065,0 0,-77.192984 -17.59065,0 0,30.783626 -24.88888,0 0,-30.783626 -17.59065,0 0,77.192984 17.59065,0 0,-30.970761 z"/>
		<path d="m 590.25658,52.807016 -44.16374,0 0,77.192984 44.16374,0 0,-15.4386 -26.5731,0 0,-15.532161 25.45029,0 0,-15.438597 -25.45029,0 0,-15.345029 26.5731,0 0,-15.438597 z"/>
		<path d="m 635.95395,52.807016 0,77.192984 17.59064,0 0,-30.502925 L 677.12354,130 l 22.36258,0 -26.5731,-31.906433 c 9.45029,-2.994152 15.81286,-10.760234 15.81286,-22.362574 0,-15.157895 -10.8538,-22.923977 -25.16959,-22.923977 l -27.60234,0 z m 17.59064,34.245615 0,-20.210527 2.05848,0 c 6.64328,0 14.5965,0.467836 14.5965,10.105263 0,9.637428 -7.95322,10.105264 -14.5965,10.105264 l -2.05848,0 z"/>
		<path d="m 725.6133,52.807016 -17.59064,0 0,77.192984 17.59064,0 0,-77.192984 z"/>
		<path d="m 741.89693,52.807016 0,77.192984 22.36257,0 c 21.23977,0 38.92398,-16.09357 38.92398,-38.643276 0,-22.45614 -17.77778,-38.549708 -38.92398,-38.549708 l -22.36257,0 z m 17.59064,61.473684 0,-45.754385 2.71345,0 c 13.09942,0 21.98831,10.011696 21.98831,22.923977 -0.0936,12.912278 -8.98246,22.830408 -21.98831,22.830408 l -2.71345,0 z"/>
		<path d="m 815.97588,52.807016 0,77.192984 22.36257,0 c 21.23977,0 38.92398,-16.09357 38.92398,-38.643276 0,-22.45614 -17.77778,-38.549708 -38.92398,-38.549708 l -22.36257,0 z m 17.59064,61.473684 0,-45.754385 2.71345,0 c 13.09942,0 21.98831,10.011696 21.98831,22.923977 -0.0936,12.912278 -8.98246,22.830408 -21.98831,22.830408 l -2.71345,0 z"/>
		<path d="m 907.64547,52.807016 -17.59064,0 0,77.192984 44.16374,0 0,-15.4386 -26.5731,0 0,-61.754384 z"/>
		<path d="m 992.0329,52.807016 -44.16374,0 0,77.192984 44.16374,0 0,-15.4386 -26.5731,0 0,-15.532161 25.45029,0 0,-15.438597 -25.45029,0 0,-15.345029 26.5731,0 0,-15.438597 z"/>
	</g>
	<g>
		<path d="m 322.31286,191.35672 c 0,22.54971 16.09357,40.04679 38.92398,40.04679 22.17544,0 38.83041,-17.49708 38.83041,-40.04679 0,-22.5497 -17.40351,-39.95321 -38.83041,-39.95321 -21.23977,0 -38.92398,17.40351 -38.92398,39.95321 z m 18.99415,0 c 0,-11.50877 6.36257,-23.01754 19.92983,-23.01754 13.66082,0 19.83625,11.50877 19.83625,23.01754 0,11.50878 -5.80117,23.01755 -19.83625,23.01755 -14.40936,0 -19.92983,-11.50877 -19.92983,-23.01755 z"/>
		<path d="m 457.46052,152.80702 -44.63158,0 0,77.19298 17.59064,0 0,-30.97076 24.98246,0 0,-15.4386 -24.98246,0 0,-15.34503 27.04094,0 0,-15.43859 z"/>
		<path d="m 491.97661,168.24561 18.33918,0 0,61.75439 17.59065,0 0,-61.75439 18.33918,0 0,-15.43859 -54.26901,0 0,15.43859 z"/>
		<path d="m 575.17105,199.02924 24.88889,0 0,30.97076 17.59064,0 0,-77.19298 -17.59064,0 0,30.78362 -24.88889,0 0,-30.78362 -17.59065,0 0,77.19298 17.59065,0 0,-30.97076 z"/>
		<path d="m 678.01608,152.80702 -44.16375,0 0,77.19298 44.16375,0 0,-15.4386 -26.5731,0 0,-15.53216 25.45029,0 0,-15.4386 -25.45029,0 0,-15.34503 26.5731,0 0,-15.43859 z"/>
		<path d="m 750.33041,151.40351 c -12.44445,0 -25.16959,9.16959 -25.16959,23.57895 0,8.04678 5.4269,15.25146 14.69005,19.83625 9.1696,4.5848 17.40351,7.11111 17.40351,12.72515 0,7.20468 -7.29824,7.57895 -11.1345,7.57895 -8.60819,0 -18.90058,-8.70176 -18.90058,-8.70176 l -8.79533,14.78363 c 0,0 10.94737,10.19883 29.00585,10.19883 15.06433,0 29.09942,-6.45614 29.09942,-24.88889 0,-10.10526 -9.45029,-17.40351 -18.05848,-21.05263 -8.79532,-3.74269 -16.09357,-6.83041 -16.09357,-11.13451 0,-4.21052 3.18129,-6.92397 9.16959,-6.92397 7.95322,0 15.62573,5.33333 15.62573,5.33333 l 7.11111,-14.03509 c 0,0 -9.91812,-7.29824 -23.95321,-7.29824 z"/>
		<path d="m 828.95615,152.80702 -16.2807,0 -31.1579,77.19298 18.90059,0 5.7076,-15.4386 29.38012,0 5.7076,15.4386 18.90059,0 -31.1579,-77.19298 z m 0.5614,46.31579 -17.40351,0 8.60819,-22.45614 0.18714,0 8.60818,22.45614 z"/>
		<path d="m 885.62428,182.09357 0.18713,0 30.69006,47.90643 17.59065,0 0,-77.19298 -17.59065,0 0,47.90643 -0.18713,0 -30.69006,-47.90643 -17.59064,0 0,77.19298 17.59064,0 0,-47.90643 z"/>
		<path d="m 950.33625,152.80702 0,77.19298 22.36257,0 c 21.23977,0 38.92398,-16.09357 38.92398,-38.64328 0,-22.45614 -17.77778,-38.5497 -38.92398,-38.5497 l -22.36257,0 z m 17.59064,61.47368 0,-45.75439 2.71345,0 c 13.09942,0 21.98831,10.0117 21.98831,22.92398 -0.0936,12.91228 -8.98246,22.83041 -21.98831,22.83041 l -2.71345,0 z"/>
		<path d="m 1051.0322,151.40351 c -12.4445,0 -25.1696,9.16959 -25.1696,23.57895 0,8.04678 5.4269,15.25146 14.69,19.83625 9.1696,4.5848 17.4035,7.11111 17.4035,12.72515 0,7.20468 -7.2982,7.57895 -11.1345,7.57895 -8.6082,0 -18.9006,-8.70176 -18.9006,-8.70176 l -8.7953,14.78363 c 0,0 10.9474,10.19883 29.0059,10.19883 15.0643,0 29.0994,-6.45614 29.0994,-24.88889 0,-10.10526 -9.4503,-17.40351 -18.0585,-21.05263 -8.7953,-3.74269 -16.0936,-6.83041 -16.0936,-11.13451 0,-4.21052 3.1813,-6.92397 9.1696,-6.92397 7.9532,0 15.6258,5.33333 15.6258,5.33333 l 7.1111,-14.03509 c 0,0 -9.9182,-7.29824 -23.9532,-7.29824 z"/>
	</g>
	<g>
		<path d="m 355.67215,332.10526 -33.1228,0 0,57.89474 33.1228,0 0,-11.57895 -19.92982,0 0,-11.64912 19.08772,0 0,-11.57895 -19.08772,0 0,-11.50877 19.92982,0 0,-11.57895 z"/>
		<path d="m 368.25658,332.10526 0,57.89474 13.19298,0 0,-22.87719 17.68422,22.87719 16.77192,0 -19.92982,-23.92982 c 7.08772,-2.24562 11.85965,-8.07018 11.85965,-16.77193 0,-11.36842 -8.14035,-17.19299 -18.87719,-17.19299 l -20.70176,0 z m 13.19298,25.68421 0,-15.15789 1.54386,0 c 4.98246,0 10.94737,0.35088 10.94737,7.57895 0,7.22807 -5.96491,7.57894 -10.94737,7.57894 l -1.54386,0 z"/>
		<path d="m 444.89145,331.05263 c -9.33333,0 -18.87719,6.8772 -18.87719,17.68421 0,6.03509 4.07017,11.4386 11.01754,14.8772 6.8772,3.43859 13.05263,5.33333 13.05263,9.54385 0,5.40351 -5.47368,5.68422 -8.35087,5.68422 -6.45614,0 -14.17544,-6.52632 -14.17544,-6.52632 l -6.59649,11.08772 c 0,0 8.21052,7.64912 21.75438,7.64912 11.29825,0 21.82456,-4.8421 21.82456,-18.66666 0,-7.57895 -7.08771,-13.05264 -13.54385,-15.78948 -6.5965,-2.80702 -12.07018,-5.12281 -12.07018,-8.35088 0,-3.15789 2.38596,-5.19298 6.87719,-5.19298 5.96492,0 11.7193,4 11.7193,4 l 5.33333,-10.52631 c 0,0 -7.43859,-5.47369 -17.96491,-5.47369 z"/>
		<path d="m 528.409,390 -26.94737,-30.45614 23.29824,-27.4386 -16,0 -19.85964,23.64913 0,-23.64913 -13.19299,0 0,57.89474 13.19299,0 0,-24.5614 21.33333,24.5614 18.17544,0 z"/>
		<path d="m 549.13597,332.10526 -13.19298,0 0,57.89474 13.19298,0 0,-57.89474 z"/>
		<path d="m 575.79167,354.07018 0.14036,0 23.01754,35.92982 13.19298,0 0,-57.89474 -13.19298,0 0,35.92983 -0.14035,0 -23.01755,-35.92983 -13.19298,0 0,57.89474 13.19298,0 0,-35.92982 z"/>
		<path d="m 658.69846,332.10526 -33.12281,0 0,57.89474 33.12281,0 0,-11.57895 -19.92983,0 0,-11.64912 19.08772,0 0,-11.57895 -19.08772,0 0,-11.50877 19.92983,0 0,-11.57895 z"/>
		<path d="m 724.08552,378.07018 c -13.26316,0 -19.08772,-9.26316 -19.08772,-17.05264 0,-7.71929 5.82456,-16.98245 19.08772,-16.98245 6.73684,0 11.36842,3.57895 11.36842,3.57895 l 5.61404,-11.22807 c 0,0 -6.45615,-5.33334 -19.01755,-5.33334 -16.42105,0 -31.36842,13.47369 -31.36842,30.10527 0,16.5614 15.01754,29.89473 31.36842,29.89473 12.5614,0 19.01755,-5.33333 19.01755,-5.33333 l -5.61404,-11.22807 c 0,0 -4.63158,3.57895 -11.36842,3.57895 z"/>
		<path d="m 764.37718,366.77193 18.66667,0 0,23.22807 13.19298,0 0,-57.89474 -13.19298,0 0,23.08772 -18.66667,0 0,-23.08772 -13.19298,0 0,57.89474 13.19298,0 0,-23.22807 z"/>
		<path d="m 822.83113,332.10526 -13.19298,0 0,57.89474 13.19298,0 0,-57.89474 z"/>
		<path d="m 849.48683,332.10526 -13.19298,0 0,57.89474 33.12281,0 0,-11.57895 -19.92983,0 0,-46.31579 z"/>
		<path d="m 880.90457,332.10526 0,57.89474 16.77193,0 c 15.92982,0 29.19298,-12.07018 29.19298,-28.98246 0,-16.8421 -13.33333,-28.91228 -29.19298,-28.91228 l -16.77193,0 z m 13.19298,46.10527 0,-34.31579 2.03509,0 c 9.82456,0 16.49123,7.50877 16.49123,17.19298 -0.0702,9.68421 -6.73684,17.12281 -16.49123,17.12281 l -2.03509,0 z"/>
		<path d="m 970.83664,332.10526 -33.1228,0 0,57.89474 33.1228,0 0,-11.57895 -19.92982,0 0,-11.64912 19.08772,0 0,-11.57895 -19.08772,0 0,-11.50877 19.92982,0 0,-11.57895 z"/>
		<path d="m 983.42105,332.10526 0,57.89474 13.19298,0 0,-22.87719 17.68417,22.87719 16.772,0 -19.9299,-23.92982 C 1018.2281,363.82456 1023,358 1023,349.29825 c 0,-11.36842 -8.1404,-17.19299 -18.8772,-17.19299 l -20.70175,0 z m 13.19298,25.68421 0,-15.15789 1.54386,0 c 4.98241,0 10.94741,0.35088 10.94741,7.57895 0,7.22807 -5.965,7.57894 -10.94741,7.57894 l -1.54386,0 z"/>
		<path d="m 1060.0559,331.05263 c -9.3333,0 -18.8772,6.8772 -18.8772,17.68421 0,6.03509 4.0702,11.4386 11.0175,14.8772 6.8772,3.43859 13.0527,5.33333 13.0527,9.54385 0,5.40351 -5.4737,5.68422 -8.3509,5.68422 -6.4561,0 -14.1754,-6.52632 -14.1754,-6.52632 l -6.5965,11.08772 c 0,0 8.2105,7.64912 21.7544,7.64912 11.2982,0 21.8245,-4.8421 21.8245,-18.66666 0,-7.57895 -7.0877,-13.05264 -13.5438,-15.78948 -6.5965,-2.80702 -12.0702,-5.12281 -12.0702,-8.35088 0,-3.15789 2.3859,-5.19298 6.8772,-5.19298 5.9649,0 11.7193,4 11.7193,4 l 5.3333,-10.52631 c 0,0 -7.4386,-5.47369 -17.9649,-5.47369 z"/>
	</g>
</svg>
